X:1802
T:Allistrum's March
M:6/8
L:1/8
B:O'Neill's 1802
N:"collected by F. O'Neill"
Z:"Transcribed by Bob Safranek, rjs@gsp.org"
K:D
A/G/|Fdd     fee|fd.d dB.A|Fdd   fdd|ed.d B2     A|
Fdd   fe.e|fd.d dB.A|Fdd fe.e|fdd  B2     A||
FE.E FD.D|FEd    dBA|FEE   FDD|FEd  B2 cBA|
FE.E FD.D|FEd    dBA|FEE   FDD|FEd   B2     A||
d2 f e2 f|d2 e dBA/F/|ddf   eef|d2 e dBA/F/|
d2 f  .eef|d2 e d/e/d/c/A/F/|ddf   eef|d2 e dBA/F/||
B2 A B2 F|B2 A B/c/B/A/F|B/c/d.B c2 F|B/c/d.B cAF|
B2 A B2 F|B2 A B/c/B/A/F|B/c/d.B c2 F|Bdc B2|]
